!!!COM:	Busnoys, Antoine
!!!CDT:	~1430///-1492/11/06
!!!OTL:	En soustenant vostre querelle
!!!AGN:	Song; Chanson
!!!SCT:	Bus3017
!!!SCA:	Bus3017
!!!voices:	3
**kern	**kern	**kern
*staff3	*staff2	*staff1
*Ivox	*Ivox	*Ivox
*I"Contratenor	*I"Tenor	*I"Cantus
*I'Ct	*I'T	*I'Cn
*clefF4	*clefGv2	*clefG2
*k[]	*k[]	*k[]
*M2/1	*M2/1	*M2/1
*met(C|)	*met(C|)	*met(C|)
=1-	=1-	=1-
!!LO:TX:Z=12:t=Rondeau
[0D	[0d	0d
=2	=2	=2
1D]	1d]	1f
1E	1B	1g
=3	=3	=3
1F	1A	1a
1G	[1d	2g
.	.	2f
=4	=4	=4
0A	1d]	0e
.	1c#i	.
=5	=5	=5
1B-i	0d	1d
1G	.	1B
=6	=6	=6
1E	1e	1c
[1D	[1f	[1d
=7	=7	=7
0D]	2f]	1d]
.	2d	.
.	[1d	1f
=8	=8	=8
0A	2d]	0e
.	2c#i	.
.	2c#i	.
.	2B	.
=9	=9	=9
0D	[0d	0d
=10	=10	=10
1.F	0d]	1r
.	.	1a
2E	.	.
=11	=11	=11
1C	1r	1a
1D	1d	1b
=12	=12	=12
1.AA	1e	1.cc
.	1e	.
2BB	.	4b
.	.	4a
=13	=13	=13
0C	1e	1g
.	1c	1a
=14	=14	=14
1r	1.d	0b
1G	.	.
.	4c	.
.	4B	.
=15	=15	=15
1A	1A	1.cc
1E	[1e	.
.	.	[2b
=16	=16	=16
1G	1e]	2b]
.	.	2a
1A	1c	[1a
=17	=17	=17
0E	0B	2a]
.	.	2f#i
.	.	1g#i
=18	=18	=18
0F	[0A	0a
=19	=19	=19
0D	0A]	1r
.	.	1a
=20	=20	=20
1E	1r	2g
.	.	2e
1D	1A	1f
=21	=21	=21
1r	2G	1e
.	2E	.
1D	1F	2r
.	.	[2a
=22	=22	=22
1C	1E	2a]
.	.	2g
1AA	2r	2a
.	[2A	2cc
=23	=23	=23
1E	2A]	1b
.	2G	.
1F	2A	2a
.	2c	[2a
=24	=24	=24
1G	1B	2a]
.	.	2g
2D	[1A	[1a
[2F	.	.
=25	=25	=25
2F]	2A]	2a]
2E	2G	2b
2F	2A	2a
2G	2B	4g
.	.	4f
=26	=26	=26
1A	1.c	1e
[1E	.	[1g
.	4B	.
.	4A	.
=27	=27	=27
1E]	[0G	2g]
.	.	2f
[1C	.	2e
.	.	2d
=28	=28	=28
1C]	1G]	1e
1D	1F	[1d
=29	=29	=29
0AA	0E	1d]
.	.	1c#i
=30	=30	=30
1r	[0DN	0dN
1D	.	.
=31	=31	=31
1.F	0D]	1r
.	.	1d
2G	.	.
=32	=32	=32
1A	0r	1f
1B-i	.	1g
=33	=33	=33
0AN	1D	0a
.	1F	.
=34	=34	=34
1r	1G	1b
[1F	[1A	[1cc
=35	=35	=35
1F]	1A]	2cc]
.	.	4b
.	.	4a
[1E	1B	[1g
=36	=36	=36
1E]	1c	1g]
1F	1A	[1cc
=37	=37	=37
1.E	0G	1cc]
.	.	1b
2D	.	.
=38	=38	=38
1.F	1F	1.a
.	[1c	.
2G	.	4g
.	.	4f
=39	=39	=39
1A	2c]	1e
.	4B	.
.	4c	.
[1D	2d	[1f
.	4c	.
.	4B	.
=40	=40	=40
0D]	1A	2f]
.	.	2g
.	[1F	[1a
=41	=41	=41
0F	1F]	2a]
.	.	2b-i
.	1A	2a
.	.	4g
.	.	4f
=42	=42	=42
0C	0G	1.e
.	.	2d
=43	=43	=43
0c	[0F	0f
=44	=44	=44
1A	1F]	1r
[1d	1D	[1a
=45	=45	=45
2d]	0E	1a]
2B	.	.
1c#i	.	1g
=46	=46	=46
1.d	0D	1f
.	.	2e
4c	.	2d
4B	.	.
=47	=47	=47
0A	1r	1c
.	1A	1f
=48	=48	=48
1r	1B	1g
[1F	1c	[1a
=49	=49	=49
1F]	1A	1a]
1D	[1d	1f
=50	=50	=50
0A	2d]	0e
.	2c#i	.
.	2c#i	.
.	2B	.
=51	=51	=51
1B-i	1d	1d
2A	1r	2c
[2A	.	2A
=52	=52	=52
2A]	1d	1B
2G	.	.
2A	2c	1A
2F	2A	.
=53	=53	=53
1G	1B	1.d
1A	1A	.
.	.	2c
=54	=54	=54
[0D	1.d	2f
.	.	2g
.	.	[1a
.	2c	.
=55	=55	=55
1D]	1.f	2a]
.	.	2b
[1A	.	[1cc
.	2e	.
=56	=56	=56
1A]	1c	2cc]
.	.	2b
[1G	[1d	[1b
=57	=57	=57
1G]	2d]	2b]
.	2c	2a
1F	2B	[1a
.	2A	.
=58	=58	=58
0E	0B	2a]
.	.	2g#i
.	.	2g#i
.	.	2f#i
=59	=59	=59
0AAl	0Al	0al
==	==	==
*-	*-	*-
!!!RDF**kern: l=long note in original notation
!!!RDF**kern: i=editorial accidental
!!!RDF**kern: N=signum congruentiae
!!!ENC:	Chris Gage 02-10-2015
!!!END:	2015/02/20/
!!!EED:	Jesse Rodin
!!!EEV:	2015/05/10/
!!!ONB:	Translated from MusicXML and edited on 2015/05/10/ by Craig Sapp
!!muse2ps: C^@{COM}^i2I150v95,95,150Q16
